Yaru++/apps/16/fofix.svg

<svg height="16" viewBox="0 0 16 16" width="16" xmlns="http://www.w3.org/2000/svg"><path d="m4.125 0c-.223.274-.358.501-.614.773-.854.91-.716 1.493-.039 2.129.117.11-.263.502-.393 1.015.254.205.319.518.551.756.252-.311.83-1.01 1.006-1.197 0 0 .371-.585-.092-1.135-.335-.333-.419-1.11-.4-1.88.022-.051-.026-.331-.019-.461zm2.136.629c-.322 0-.355.115-.243.817.163 1.018-.191 1.948-.984 2.534-.331.245-1.003 1.07-1.003 1.178 0 .095-1.527.491-1.085 1.059.066.084-.764.649.179.236.787-.344 1.227 1.696 1.528 2.28l.547 1.062-.486.949c-.709 1.382-.503 1.836-1.838 3.188-.208.211-.174.472-.338.364-1.17-.77-.102.346-.175.447-.532-1.113-.377.626-.377.627.507.558 1.453.648 2.197.627 1.24.006 1.784-.828 2.149-1.449 1.066-1.823 2.442-3.277 2.876-3.11.19.073.875.87 1.523 1.771.649.9 1.272 1.61 1.385 1.578.365-.107.796-1.031.796-1.914 0-1.169-.205-1.443-.559-1.789-.264-.258-.102-.394-.351-.758-.436-.636-.648-.44-.324-1.124.186-.392.194-.579.68-.977 1.2-.983 1.886-3.027 1.62-3.991-.11-.397-.294-.901-.46-1.122-.285-.376-.304-.354-.31.368-.005.632-1.602 1.359-1.943 1.359-.034 0-.07.006-.109.018-.298.471-.543.767-.733 1.117-.925 1.3-.622 1.283-.967 1.283-.347 0-1.1-.9-2.042-2.316-.073-.11-.404-.212-.456-.307-.026-.048-.043-.09-.062-.133-.007-.016-.015-.032-.022-.048-.013-.029-.031-.061-.041-.089-.028-.073-.044-.139-.054-.202-.001-.002-.002-.005-.002-.007-.001-.005-.003-.011-.004-.017-.001-.007.001-.014 0-.021-.006-.057-.006-.111.003-.16.001-.005 0-.01.001-.014.011-.054.033-.103.061-.15.001-.001.002-.002.002-.004.003-.004.004-.009.007-.013.032-.048.076-.092.128-.133.001-.001.002-.002.004-.004h.001c.112-.086.267-.157.468-.218.048.017.092.03.143.049h.684c.025-.079.028-.175.014-.299-.072-.61-1.529-2.542-2.028-2.542zm5.152 0c-.277 0-1.535 1.922-1.477 2.607.053.63-.066.64.208.607.243-.03.878-.027 1-.255.082-.154.33-1.666.411-1.986.228-.904.218-.973-.142-.973z" fill="#808080"/></svg>

<svg xmlns="http://www.w3.org/2000/svg" width="16" height="16" viewBox="0 0 16 16">
 <defs>
  <style id="current-color-scheme" type="text/css">
   .ColorScheme-Text { color: #808080; } .ColorScheme-Highlight { color: #5294e2; }
  </style>
 </defs>
 <path fill="currentColor" class="ColorScheme-Text" d="M 4.125 0 C 3.902 0.274 3.767 0.501 3.511 0.773 C 2.657 1.683 2.795 2.266 3.472 2.902 C 3.589 3.012 3.209 3.404 3.079 3.917 C 3.333 4.122 3.398 4.435 3.63 4.673 C 3.882 4.362 4.46 3.663 4.636 3.476 C 4.636 3.476 5.007 2.891 4.544 2.341 C 4.209 2.008 4.125 1.231 4.144 0.461 C 4.166 0.41 4.118 0.13 4.125 0 L 4.125 0 Z M 6.261 0.629 C 5.939 0.629 5.906 0.744 6.018 1.446 C 6.181 2.464 5.827 3.394 5.034 3.98 C 4.703 4.225 4.031 5.05 4.031 5.158 C 4.031 5.253 2.504 5.649 2.946 6.217 C 3.012 6.301 2.182 6.866 3.125 6.453 C 3.912 6.109 4.352 8.149 4.653 8.733 L 5.2 9.795 L 4.714 10.744 C 4.005 12.126 4.211 12.58 2.876 13.932 C 2.668 14.143 2.702 14.404 2.538 14.296 C 1.368 13.526 2.436 14.642 2.363 14.743 C 1.831 13.63 1.986 15.369 1.986 15.37 C 2.493 15.928 3.439 16.018 4.183 15.997 C 5.423 16.003 5.967 15.169 6.332 14.548 C 7.398 12.725 8.774 11.271 9.208 11.438 C 9.398 11.511 10.083 12.308 10.731 13.209 C 11.38 14.109 12.003 14.819 12.116 14.787 C 12.481 14.68 12.912 13.756 12.912 12.873 C 12.912 11.704 12.707 11.43 12.353 11.084 C 12.089 10.826 12.251 10.69 12.002 10.326 C 11.566 9.69 11.354 9.886 11.678 9.202 C 11.864 8.81 11.872 8.623 12.358 8.225 C 13.558 7.242 14.244 5.198 13.978 4.234 C 13.868 3.837 13.684 3.333 13.518 3.112 C 13.233 2.736 13.214 2.758 13.208 3.48 C 13.203 4.112 11.606 4.839 11.265 4.839 C 11.231 4.839 11.195 4.845 11.156 4.857 C 10.858 5.328 10.613 5.624 10.423 5.974 C 9.498 7.274 9.801 7.257 9.456 7.257 C 9.109 7.257 8.356 6.357 7.414 4.941 C 7.341 4.831 7.01 4.729 6.958 4.634 C 6.932 4.586 6.915 4.544 6.896 4.501 C 6.889 4.485 6.881 4.469 6.874 4.453 C 6.861 4.424 6.843 4.392 6.833 4.364 C 6.805 4.291 6.789 4.225 6.779 4.162 C 6.778 4.16 6.777 4.157 6.777 4.155 C 6.776 4.15 6.774 4.144 6.773 4.138 C 6.772 4.131 6.774 4.124 6.773 4.117 C 6.767 4.06 6.767 4.006 6.776 3.957 C 6.777 3.952 6.776 3.947 6.777 3.943 C 6.788 3.889 6.81 3.84 6.838 3.793 C 6.839 3.792 6.84 3.791 6.84 3.789 C 6.843 3.785 6.844 3.78 6.847 3.776 C 6.879 3.728 6.923 3.684 6.975 3.643 C 6.976 3.642 6.977 3.641 6.979 3.639 C 6.979 3.639 6.98 3.639 6.98 3.639 C 7.092 3.553 7.247 3.482 7.448 3.421 C 7.496 3.438 7.54 3.451 7.591 3.47 L 8.275 3.47 C 8.3 3.391 8.303 3.295 8.289 3.171 C 8.217 2.561 6.76 0.629 6.261 0.629 L 6.261 0.629 Z M 11.413 0.629 C 11.136 0.629 9.878 2.551 9.936 3.236 C 9.989 3.866 9.87 3.876 10.144 3.843 C 10.387 3.813 11.022 3.816 11.144 3.588 C 11.226 3.434 11.474 1.922 11.555 1.602 C 11.783 0.698 11.773 0.629 11.413 0.629 Z"/>
</svg>
